X:248
T:Pigeon on the Gate 2 (reel), The 
B:CRE2.250ii (ColÃÂÃÂÃÂÃÂºr ar an nGeata 2)
F:file ID: cre.2/248pig_g2
L:1/8
M:C
R:reel
Q:180
K:Em
d^c|BEE2 Bd^cA|BEE2 B2AG|FADA FADA|FADA FAD2|
BEE2 Bd^cA|BEE2 BAFG|ABde fed^c|BGAF E2:|
zd|e2ef gfga|b2af gfe2|BdAF GGGA|Bdef gfe2|
Beef gfga|bagf gfe2|BdAF GFGA|BAGF E2:|

%%%

